X:33
T:Shepherds Hey
Q:1/4=140
I:abc2nwc
M:4/4
L:1/8
K:G
G|BcdB c2c2|BcdB A4|BcdB c2Bc|d2D2G3:|
|:A|B2G2c4|B2G2A4|B2d2c2Bc|d2D2G3:|


